Suru++-Ubuntu/apps/symbolic/electrum-ltc-symbolic.svg

<svg width="16" height="16" style="isolation:isolate" viewBox="0 0 16 16" xmlns="http://www.w3.org/2000/svg">
 <defs>
  <clipPath id="_clipPath_iWUsIyE4qRFvtwiYuHbGFIfmw1HdbGtQ">
   <rect width="16" height="16"/>
  </clipPath>
 </defs>
 <g clip-path="url(#_clipPath_iWUsIyE4qRFvtwiYuHbGFIfmw1HdbGtQ)">
  <rect width="16" height="16" fill-opacity="0" style="fill:rgb(0,0,0)"/>
  <path d="m5.764 0.643c-0.628-0.015-1.228 0.121-1.764 0.431-1.155 0.666-1.749 1.992-1.839 3.557-1.31 0.861-2.161 2.038-2.161 3.371s0.851 2.51 2.161 3.37c0.09 1.565 0.685 2.891 1.84 3.558 1.154 0.666 2.599 0.518 3.999-0.186 1.4 0.704 2.846 0.852 4 0.186 1.154-0.667 1.749-1.992 1.839-3.557 1.31-0.861 2.161-2.038 2.161-3.371s-0.851-2.511-2.161-3.371c-0.09-1.565-0.685-2.891-1.839-3.557-1.155-0.667-2.601-0.519-4.001 0.186-0.75-0.377-1.511-0.601-2.235-0.617zm4.472 0.632c0.529-0.014 1.019 0.099 1.448 0.347 0.826 0.477 1.33 1.406 1.485 2.616-0.732-0.381-1.573-0.678-2.491-0.877-0.631-0.695-1.308-1.275-2.003-1.718 0.542-0.227 1.069-0.355 1.561-0.368zm-4.472 0c0.492 0.013 1.018 0.141 1.56 0.368-0.695 0.443-1.373 1.023-2.003 1.718-0.918 0.199-1.759 0.496-2.49 0.877 0.154-1.21 0.66-2.139 1.486-2.616 0.428-0.248 0.918-0.36 1.447-0.347zm2.235 0.698c0.541 0.306 1.084 0.712 1.607 1.2-0.519-0.064-1.056-0.098-1.606-0.098s-1.087 0.034-1.607 0.098c0.523-0.488 1.065-0.894 1.606-1.2zm1e-3 1.736c0.821 0 1.609 0.082 2.346 0.228 0.495 0.566 0.961 1.207 1.372 1.918 0.411 0.712 0.733 1.435 0.975 2.147-0.242 0.711-0.564 1.435-0.975 2.146-0.411 0.712-0.876 1.353-1.372 1.918-0.737 0.146-1.524 0.229-2.346 0.229s-1.609-0.083-2.346-0.229c-0.496-0.565-0.962-1.206-1.372-1.917-0.411-0.712-0.733-1.436-0.975-2.147 0.242-0.712 0.564-1.435 0.975-2.147 0.41-0.711 0.876-1.352 1.372-1.918 0.737-0.146 1.524-0.228 2.346-0.228zm-3.379 0.488c-0.315 0.417-0.612 0.865-0.888 1.341-0.275 0.477-0.513 0.959-0.717 1.441-0.162-0.697-0.243-1.37-0.237-1.992 0.535-0.315 1.158-0.582 1.842-0.79zm6.757 0c0.685 0.208 1.307 0.475 1.843 0.79 5e-3 0.622-0.075 1.294-0.237 1.992-0.203-0.482-0.442-0.964-0.717-1.44-0.276-0.476-0.574-0.925-0.889-1.342zm-4.577 0.731-0.594 2.61-1.034 0.156-0.246 0.922 1.071-0.162-0.457 2.006h4.457l0.43-1.229h-2.763l0.243-1.067 1.075-0.162 0.246-0.922-1.112 0.168 0.528-2.32h-1.844zm7.043 0.479c0.97 0.738 1.522 1.64 1.522 2.595 0 0.954-0.552 1.856-1.522 2.595-0.036-0.824-0.199-1.701-0.486-2.595 0.287-0.894 0.45-1.771 0.486-2.595zm-11.689 0c0.037 0.824 0.2 1.701 0.486 2.595-0.286 0.894-0.449 1.77-0.486 2.594-0.969-0.738-1.521-1.64-1.521-2.594s0.552-1.856 1.521-2.595zm0.861 3.617c0.204 0.482 0.442 0.964 0.717 1.441 0.276 0.476 0.573 0.924 0.888 1.342-0.684-0.209-1.307-0.475-1.842-0.791-6e-3 -0.621 0.075-1.294 0.237-1.992zm9.968 0c0.162 0.698 0.242 1.37 0.237 1.992-0.536 0.316-1.158 0.582-1.843 0.791 0.315-0.418 0.613-0.866 0.888-1.342s0.515-0.959 0.718-1.441zm-10.153 2.742c0.731 0.38 1.572 0.678 2.49 0.877 0.63 0.694 1.308 1.274 2.003 1.717-1.125 0.471-2.181 0.498-3.007 0.021s-1.332-1.406-1.486-2.615zm10.338 0c-0.155 1.209-0.66 2.138-1.486 2.615s-1.883 0.45-3.008-0.021c0.695-0.443 1.372-1.023 2.003-1.717 0.918-0.199 1.759-0.497 2.491-0.877zm-6.775 1.064c0.519 0.064 1.056 0.098 1.606 0.098s1.087-0.034 1.606-0.098c-0.524 0.489-1.065 0.895-1.607 1.2-0.541-0.305-1.082-0.711-1.605-1.2z" fill="#808080"/>
 </g>
</svg>

<svg xmlns="http://www.w3.org/2000/svg" style="isolation:isolate" width="16" height="16" viewBox="0 0 16 16">
 <defs>
  <clipPath id="_clipPath_iWUsIyE4qRFvtwiYuHbGFIfmw1HdbGtQ">
   <rect width="16" height="16"/>
  </clipPath>
 </defs>
 <g clip-path="url(#_clipPath_iWUsIyE4qRFvtwiYuHbGFIfmw1HdbGtQ)">
  <rect style="fill:rgb(0,0,0)" fill-opacity="0" width="16" height="16"/>
  <path fill="#808080" d="M 5.764 0.643 C 5.136 0.628 4.536 0.764 4 1.074 C 2.845 1.74 2.251 3.066 2.161 4.631 C 0.851 5.492 0 6.669 0 8.002 C 0 9.335 0.851 10.512 2.161 11.372 C 2.251 12.937 2.846 14.263 4.001 14.93 C 5.155 15.596 6.6 15.448 8 14.744 C 9.4 15.448 10.846 15.596 12 14.93 C 13.154 14.263 13.749 12.938 13.839 11.373 C 15.149 10.512 16 9.335 16 8.002 C 16 6.669 15.149 5.491 13.839 4.631 C 13.749 3.066 13.154 1.74 12 1.074 C 10.845 0.407 9.399 0.555 7.999 1.26 C 7.249 0.883 6.488 0.659 5.764 0.643 Z M 10.236 1.275 C 10.765 1.261 11.255 1.374 11.684 1.622 C 12.51 2.099 13.014 3.028 13.169 4.238 C 12.437 3.857 11.596 3.56 10.678 3.361 C 10.047 2.666 9.37 2.086 8.675 1.643 C 9.217 1.416 9.744 1.288 10.236 1.275 Z M 5.764 1.275 C 6.256 1.288 6.782 1.416 7.324 1.643 C 6.629 2.086 5.951 2.666 5.321 3.361 C 4.403 3.56 3.562 3.857 2.831 4.238 C 2.985 3.028 3.491 2.099 4.317 1.622 C 4.745 1.374 5.235 1.262 5.764 1.275 Z M 7.999 1.973 C 8.54 2.279 9.083 2.685 9.606 3.173 C 9.087 3.109 8.55 3.075 8 3.075 C 7.45 3.075 6.913 3.109 6.393 3.173 C 6.916 2.685 7.458 2.279 7.999 1.973 Z M 8 3.709 C 8.821 3.709 9.609 3.791 10.346 3.937 C 10.841 4.503 11.307 5.144 11.718 5.855 C 12.129 6.567 12.451 7.29 12.693 8.002 C 12.451 8.713 12.129 9.437 11.718 10.148 C 11.307 10.86 10.842 11.501 10.346 12.066 C 9.609 12.212 8.822 12.295 8 12.295 C 7.178 12.295 6.391 12.212 5.654 12.066 C 5.158 11.501 4.692 10.86 4.282 10.149 C 3.871 9.437 3.549 8.713 3.307 8.002 C 3.549 7.29 3.871 6.567 4.282 5.855 C 4.692 5.144 5.158 4.503 5.654 3.937 C 6.391 3.791 7.178 3.709 8 3.709 Z M 4.621 4.197 C 4.306 4.614 4.009 5.062 3.733 5.538 C 3.458 6.015 3.22 6.497 3.016 6.979 C 2.854 6.282 2.773 5.609 2.779 4.987 C 3.314 4.672 3.937 4.405 4.621 4.197 Z M 11.378 4.197 C 12.063 4.405 12.685 4.672 13.221 4.987 C 13.226 5.609 13.146 6.281 12.984 6.979 C 12.781 6.497 12.542 6.015 12.267 5.539 C 11.991 5.063 11.693 4.614 11.378 4.197 Z M 6.801 4.928 L 6.207 7.538 L 5.173 7.694 L 4.927 8.616 L 5.998 8.454 L 5.541 10.46 L 9.998 10.46 L 10.428 9.231 L 7.665 9.231 L 7.908 8.164 L 8.983 8.002 L 9.229 7.08 L 8.117 7.248 L 8.645 4.928 L 6.801 4.928 Z M 13.844 5.407 C 14.814 6.145 15.366 7.047 15.366 8.002 C 15.366 8.956 14.814 9.858 13.844 10.597 C 13.808 9.773 13.645 8.896 13.358 8.002 C 13.645 7.108 13.808 6.231 13.844 5.407 Z M 2.155 5.407 C 2.192 6.231 2.355 7.108 2.641 8.002 C 2.355 8.896 2.192 9.772 2.155 10.596 C 1.186 9.858 0.634 8.956 0.634 8.002 C 0.634 7.048 1.186 6.146 2.155 5.407 Z M 3.016 9.024 C 3.22 9.506 3.458 9.988 3.733 10.465 C 4.009 10.941 4.306 11.389 4.621 11.807 C 3.937 11.598 3.314 11.332 2.779 11.016 C 2.773 10.395 2.854 9.722 3.016 9.024 Z M 12.984 9.024 C 13.146 9.722 13.226 10.394 13.221 11.016 C 12.685 11.332 12.063 11.598 11.378 11.807 C 11.693 11.389 11.991 10.941 12.266 10.465 C 12.541 9.989 12.781 9.506 12.984 9.024 Z M 2.831 11.766 C 3.562 12.146 4.403 12.444 5.321 12.643 C 5.951 13.337 6.629 13.917 7.324 14.36 C 6.199 14.831 5.143 14.858 4.317 14.381 C 3.491 13.904 2.985 12.975 2.831 11.766 Z M 13.169 11.766 C 13.014 12.975 12.509 13.904 11.683 14.381 C 10.857 14.858 9.8 14.831 8.675 14.36 C 9.37 13.917 10.047 13.337 10.678 12.643 C 11.596 12.444 12.437 12.146 13.169 11.766 Z M 6.394 12.83 C 6.913 12.894 7.45 12.928 8 12.928 C 8.55 12.928 9.087 12.894 9.606 12.83 C 9.082 13.319 8.541 13.725 7.999 14.03 C 7.458 13.725 6.917 13.319 6.394 12.83 Z"/>
 </g>
</svg>
